X: 7746
T: Colonel Thornton
R: reel
M: 4/4
K: Aminor
A|E(A,A,B,) C2 CE|DCB,D ECDB,|E(A,A,B,) C/C/C CE|DB,GB, (G,A,) A,:|
B,|(G,A,)A,C EA,CE|GEDG B,G,G,B,|(G,A,)A,C EA,CE|GEDB, A,/A,/A, A,B,|
(G,A,)A,A GAAE|GEDC B,DDA|E(A,A,B,) C/C/C CE|DB,GB, (G,A,) A,|
B,|A,aag {ab}agea|gedg BAGB|Aaab {ab}ageg|dBgB A2 AB|
Aaab {ab}ageb|gedg BAGB|cBAB cdec|dBgB A2A|

